communes/3810.svg

<?xml version="1.0" encoding="UTF-8"?>
<!DOCTYPE svg  PUBLIC '-//W3C//DTD SVG 1.1//EN'  'http://www.w3.org/Graphics/SVG/1.1/DTD/svg11.dtd'>
<svg width="438" height="480" viewBox="21 15 438 480" xmlns="http://www.w3.org/2000/svg" xmlns:dc="http://purl.org/dc/elements/1.1/" xmlns:rdf="http://www.w3.org/1999/02/22-rdf-syntax-ns#" xmlns:xlink="http://www.w3.org/1999/xlink">
<metadata>
<rdf:RDF>
<rdf:Description dc:date="2006-11-04" dc:format="image/svg+xml" dc:language="de" dc:title="Wappen Sta. Maria in Calanca (CH-GR)">
<dc:creator rdf:resource="http://de.wikipedia.org/wiki/Benutzer:Bernina"/>
</rdf:Description>
</rdf:RDF>
</metadata>
<title>Wappen Sta. Maria in Calanca (CH-GR)</title>
<style type="text/css"><![CDATA[
  .Rand2 { stroke: #202020; stroke-width:30; }
  .Rand4 { stroke: #202020; stroke-width:60; }
  .Rand6 { stroke: #202020; stroke-width:90; }
  .Schwarz { fill: #000000; }
  .Blau { fill: #0000ff; }
  .Gold { fill: #ffef00; }
  .Silber { fill: #ffffff; }
  ]]></style>
<defs>
<circle id="t" cx="1890" cy="5535" r="450"/>
<circle id="i" cx="1980" cy="6165" r="284"/>
<circle id="g" cx="2430" cy="5805" r="202"/>
<circle id="f" cx="2880" cy="5985" r="360"/>
<circle id="e" cx="2430" cy="6165" r="270"/>
<circle id="d" cx="2880" cy="6435" r="180"/>
<circle id="c" cx="3330" cy="6525" r="450"/>
<circle id="b" cx="3780" cy="6075" r="360"/>
<circle id="a" cx="3960" cy="6525" r="202"/>
<circle id="s" cx="4320" cy="6165" r="284"/>
<circle id="r" cx="4500" cy="6525" r="202"/>
<circle id="q" cx="4950" cy="6435" r="254"/>
<circle id="p" cx="4680" cy="5805" r="284"/>
<circle id="o" cx="5490" cy="5805" r="450"/>
<circle id="n" cx="5040" cy="5355" r="284"/>
<circle id="m" cx="4770" cy="5985" r="284"/>
<circle id="l" cx="5740" cy="5455" r="180"/>
<circle id="k" cx="2160" cy="5895" r="180"/>
<circle id="j" cx="4590" cy="6345" r="180"/>
<circle id="h" cx="4950" cy="5715" r="180"/>
<clipPath id="u">
<path d="m360 4140a3240 3240 0 0 0 6480 0v-3870h-6480v3870z"/>
</clipPath>
</defs>
<g transform="scale(.066667)" fill="none" fill-rule="evenodd" stroke-miterlimit="10" stroke-width="10">
<g clip-path="url(#u)">
<path class="Blau" d="m-225-225v7650h7650v-7650h-7650z"/>
<path class="Gold Rand2" d="m1620 630-150 460-474-100 324 360-324 360 474-100 150 460 150-460 474 100-324-360 324-360-474 100-150-460z"/>
<path class="Gold Rand2" d="m5580 630-150 460-474-100 324 360-324 360 474-100 150 460 150-460 474 100-324-360 324-360-474 100-150-460z"/>
<path class="Silber Rand2" d="m4230 1080a630 630 0 0 0-1260 0 630 630 0 0 0 1260 0z"/>
<path class="Gold Rand2" d="m2970 2250c0-60 0-120 60-300s180-480 255-675 105-285 180-330 195-45 270 0 105 135 180 315 195 450 255 630 60 270 60 360"/>
<path class="Gold Rand2" d="m3600 1710h-90c-30 0-60 0-150 60s-240 180-345 315-165 285-210 465-75 390-75 645 30 555 45 780 15 375 15 645v915 495l990-90c270 30 540 60 675 0s135-210 120-375-45-345-45-630 30-675 45-1020 15-645-30-945-135-600-270-810-315-330-420-390-135-60-165-60h-90z"/>
<path class="Gold Rand2" d="m3600 510c-30 0-60 60-90 90s-60 30-60 45 30 45 45 75 15 60 0 75-45 15-60-15-15-90-30-120-45-30-75-30-60 0-75 15-15 45 15 105 90 150 135 195 75 45 120 45h150c45 0 75 0 120-45s105-135 135-195 30-90 15-105-45-15-75-15-60 0-75 30-15 90-30 120-45 30-60 15-15-45 0-75 45-60 45-75-30-15-60-45-60-90-90-90z"/>
<path class="Rand2" d="m3150 2970c150 30 300 60 450 60s300-30 450-60"/>
<path class="Rand2" d="m3150 3060c150 30 300 60 450 60s300-30 450-60"/>
<path class="Rand2" d="m3510 3150c-30 330-60 660-60 990s30 660 60 915 60 435 90 615"/>
<path class="Rand2" d="m3330 3150c-30 210-60 420-90 705s-60 645-90 1005"/>
<path class="Rand2" d="m3690 3150c-30 330-60 660-60 945s30 525 75 780 105 525 165 660 120 135 180 135"/>
<path class="Rand2" d="m3870 3150c30 180 60 360 75 600s15 540 30 795 45 465 75 645 60 330 75 420 15 120 0 150-45 60-75 90"/>
<path class="Rand2" d="m3330 5040c-30 150-60 300-60 405s30 165 60 210 60 75 105 75 105-30 165-60"/>
<path class="Rand2" d="m3420 2070c-90 240-180 480-225 660s-45 300-60 795-45 1365-75 2235"/>
<path class="Rand2" d="m3780 2070c90 240 180 480 240 690s90 390 120 885 60 1305 90 1725 60 450 90 480"/>
<path class="Gold Rand2" d="m3150 5940c0 30 0 60 60 90s180 60 240 45 60-75 30-120-90-75-150-90-120-15-180-15"/>
<path class="Gold Rand2" d="m4050 5850c0 30 0 60 45 90s135 60 195 75 90 15 90-15-30-90-75-135-105-75-165-105"/>
<path class="Gold Rand2" d="m3330 2130h540v-120h-540v120z"/>
<path class="Gold Rand2" d="m3150 3150c90-60 180-120 225-165s45-75 45-120 0-105-30-120-90 15-129 34-57 27-75 35"/>
<path class="Gold Rand2" d="m4094 3122c-14.67 9.33-29.33 18.67-81.67-6.67-52.33-25.33-142.33-85.33-187.33-130.33s-45-75-45-120 0-105 30-120 90 15 131 34 63 27 85 35"/>
<path class="Silber Rand2" d="m3240 2070 90 90 90-90-90-90-90 90z"/>
<path class="Silber Rand2" d="m3780 2070 90 90 90-90-90-90-90 90z"/>
<path class="Silber Rand2" d="m3345 2880c15 30 45 60 90 45s105-75 135-120 30-75 15-120-45-105-45-150 30-75 45-150 15-195 0-225-45 30-75 90-60 120-60 195 30 165 15 225-75 90-105 120-30 60-15 90z"/>
<path class="Silber Rand2" d="m3855 2880c15-30 15-60-15-90s-90-60-105-120 15-150 15-225-30-135-60-195-60-120-75-90-15 150 0 225 45 105 45 150-30 105-45 150-15 75 15 120 90 105 135 120 75-15 90-45z"/>
<path class="Silber Rand2" d="m3510 1530c0 120 0 240 15 315s45 105 75 105 60-30 75-105 15-195 15-315"/>
<use class="Rand4" xlink:href="#t"/>
<use class="Rand4" xlink:href="#i"/>
<use class="Rand4" xlink:href="#g"/>
<use class="Rand4" xlink:href="#f"/>
<use class="Rand4" xlink:href="#e"/>
<use class="Rand4" xlink:href="#d"/>
<use class="Rand4" xlink:href="#c"/>
<use class="Rand4" xlink:href="#b"/>
<use class="Rand4" xlink:href="#a"/>
<use class="Rand4" xlink:href="#s"/>
<use class="Rand4" xlink:href="#r"/>
<use class="Rand4" xlink:href="#q"/>
<use class="Rand4" xlink:href="#p"/>
<use class="Rand4" xlink:href="#o"/>
<use class="Rand4" xlink:href="#n"/>
<use class="Rand4" xlink:href="#m"/>
<use class="Rand4" xlink:href="#l"/>
<use class="Rand4" xlink:href="#k"/>
<use class="Rand4" xlink:href="#j"/>
<use class="Rand4" xlink:href="#h"/>
<use class="Silber" xlink:href="#t"/>
<use class="Silber" xlink:href="#i"/>
<use class="Silber" xlink:href="#g"/>
<use class="Silber" xlink:href="#f"/>
<use class="Silber" xlink:href="#e"/>
<use class="Silber" xlink:href="#d"/>
<use class="Silber" xlink:href="#c"/>
<use class="Silber" xlink:href="#b"/>
<use class="Silber" xlink:href="#a"/>
<use class="Silber" xlink:href="#s"/>
<use class="Silber" xlink:href="#r"/>
<use class="Silber" xlink:href="#q"/>
<use class="Silber" xlink:href="#p"/>
<use class="Silber" xlink:href="#o"/>
<use class="Silber" xlink:href="#n"/>
<use class="Silber" xlink:href="#m"/>
<use class="Silber" xlink:href="#l"/>
<use class="Silber" xlink:href="#k"/>
<use class="Silber" xlink:href="#j"/>
<use class="Silber" xlink:href="#h"/>
<path class="Silber Rand2" d="m3450 1215c-30 75-30 195 0 285s90 150 150 150 120-60 150-150 30-210 0-285-90-105-150-105-120 30-150 105z"/>
<path class="Rand2" d="m3960 1800c-60-210-120-420-165-540s-75-150-120-165-105-15-150 0-75 45-120 165-105 330-165 540"/>
<path class="Rand2" d="m3552 1534 50 14 56-14"/>
<path class="Rand2" d="m3518 1224c16.67 3.33 33.33 6.67 47 12.67s24.33 14.66 21 48.66-20.67 93.34-16 122.34 31.33 27.66 58 26.33"/>
<path class="Schwarz" d="m3538 1292a36 24 0 0 0-72 0 36 24 0 0 0 72 0z"/>
<path class="Schwarz" d="m3734 1292a36 24 0 0 1-72 0 36 24 0 0 1 72 0z"/>
</g>
<path class="Rand6" d="m360 4140a3240 3240 0 0 0 6480 0v-3870h-6480v3870z"/>
</g>
</svg>

<?xml version="1.0" encoding="iso-8859-1"?>
<!DOCTYPE svg PUBLIC "-//W3C//DTD SVG 1.1//EN" "http://www.w3.org/Graphics/SVG/1.1/DTD/svg11.dtd">
<!-- Auto-generated by fig2svg tool
     Date: Sat Nov  4 20:55:51 2006 -->
<svg xmlns="http://www.w3.org/2000/svg"
   xmlns:dc="http://purl.org/dc/elements/1.1/"
   xmlns:cc="http://creativecommons.org/ns#"
   xmlns:rdf="http://www.w3.org/1999/02/22-rdf-syntax-ns#"
   xmlns:svg="http://www.w3.org/2000/svg"
   xmlns:xlink="http://www.w3.org/1999/xlink"
     width="438" height="480" viewBox="21 15 438 480">
<metadata>
<rdf:RDF>
<rdf:Description
 dc:title="Wappen Sta. Maria in Calanca (CH-GR)"
 dc:date="2006-11-04"
 dc:format="image/svg+xml"
 dc:language="de">
<dc:creator rdf:resource="http://de.wikipedia.org/wiki/Benutzer:Bernina" />
</rdf:Description>
</rdf:RDF>
</metadata>
<title>
Wappen Sta. Maria in Calanca (CH-GR)
</title>
<style type="text/css">
  <![CDATA[
  .Rand2 { stroke: #202020; stroke-width:30; }
  .Rand4 { stroke: #202020; stroke-width:60; }
  .Rand6 { stroke: #202020; stroke-width:90; }
  .Schwarz { fill: #000000; }
  .Blau { fill: #0000ff; }
  .Gold { fill: #ffef00; }
  .Silber { fill: #ffffff; }
  ]]>
</style>
<defs>
<circle id="wolke-1" cx="1890" cy="5535" r="450" />
<circle id="wolke-2" cx="1980" cy="6165" r="284" />
<circle id="wolke-3" cx="2430" cy="5805" r="202" />
<circle id="wolke-4" cx="2880" cy="5985" r="360" />
<circle id="wolke-5" cx="2430" cy="6165" r="270" />
<circle id="wolke-6" cx="2880" cy="6435" r="180" />
<circle id="wolke-7" cx="3330" cy="6525" r="450" />
<circle id="wolke-8" cx="3780" cy="6075" r="360" />
<circle id="wolke-9" cx="3960" cy="6525" r="202" />
<circle id="wolke-10" cx="4320" cy="6165" r="284" />
<circle id="wolke-11" cx="4500" cy="6525" r="202" />
<circle id="wolke-12" cx="4950" cy="6435" r="254" />
<circle id="wolke-13" cx="4680" cy="5805" r="284" />
<circle id="wolke-14" cx="5490" cy="5805" r="450" />
<circle id="wolke-15" cx="5040" cy="5355" r="284" />
<circle id="wolke-16" cx="4770" cy="5985" r="284" />
<circle id="wolke-17" cx="5740" cy="5455" r="180" />
<circle id="wolke-18" cx="2160" cy="5895" r="180" />
<circle id="wolke-19" cx="4590" cy="6345" r="180" />
<circle id="wolke-20" cx="4950" cy="5715" r="180" />
<clipPath id="clippath">
<path d="M360,4140 A3240,3240 0.0 0 0 6840,4140 L6840,270 L360,270 L360,4140 Z" />
</clipPath>
</defs>
<g stroke="none" stroke-miterlimit="10" stroke-width="10"
   stroke-linecap="butt" stroke-linejoin="miter"
   fill="none" fill-rule="evenodd" transform="scale(0.066667)">
<g clip-path="url(#clippath)">
<path id="feld-1" class="Blau"
      d="M-225,-225 L-225,7425 L7425,7425 L7425,-225 L-225,-225 Z" />
<path id="stern-1" class="Gold Rand2"
      d="M1620,630 L1470,1090 L996,990 L1320,1350 L996,1710 L1470,1610
         L1620,2070 L1770,1610 L2244,1710 L1920,1350 L2244,990 L1770,1090
         L1620,630 Z" />
<path id="stern-2" class="Gold Rand2"
      d="M5580,630 L5430,1090 L4956,990 L5280,1350 L4956,1710 L5430,1610
         L5580,2070 L5730,1610 L6204,1710 L5880,1350 L6204,990 L5730,1090
         L5580,630 Z" />
<path id="nimbus-1" class="Silber Rand2"
      d="M4230,1080 A630,630 0.0 0 0 2970,1080 A630,630 0.0 0 0 4230,1080 Z" />
<path id="figur1-1" class="Gold Rand2"
      d="M2970,2250 C2970,2190 2970,2130 3030,1950
         C3090,1770 3210,1470 3285,1275 C3360,1080 3390,990 3465,945
         C3540,900 3660,900 3735,945 C3810,990 3840,1080 3915,1260
         C3990,1440 4110,1710 4170,1890 C4230,2070 4230,2160 4230,2250" />
<path id="figur2-1" class="Gold Rand2"
      d="M3600,1710 C3570,1710 3540,1710 3510,1710
         C3480,1710 3450,1710 3360,1770 C3270,1830 3120,1950 3015,2085
         C2910,2220 2850,2370 2805,2550 C2760,2730 2730,2940 2730,3195
         C2730,3450 2760,3750 2775,3975 C2790,4200 2790,4350 2790,4620
         C2790,4890 2790,5280 2790,5535 C2790,5790 2790,5910 2790,6030
         L3780,5940 C4050,5970 4320,6000 4455,5940
         C4590,5880 4590,5730 4575,5565 C4560,5400 4530,5220 4530,4935
         C4530,4650 4560,4260 4575,3915 C4590,3570 4590,3270 4545,2970
         C4500,2670 4410,2370 4275,2160 C4140,1950 3960,1830 3855,1770
         C3750,1710 3720,1710 3690,1710 C3660,1710 3630,1710 3600,1710 Z" />
<path id="krone-1" class="Gold Rand2"
      d="M3600,510 C3570,510 3540,570 3510,600 C3480,630 3450,630 3450,645
         C3450,660 3480,690 3495,720 C3510,750 3510,780 3495,795
         C3480,810 3450,810 3435,780 C3420,750 3420,690 3405,660
         C3390,630 3360,630 3330,630 C3300,630 3270,630 3255,645
         C3240,660 3240,690 3270,750 C3300,810 3360,900 3405,945
         C3450,990 3480,990 3525,990 C3570,990 3630,990 3675,990
         C3720,990 3750,990 3795,945 C3840,900 3900,810 3930,750
         C3960,690 3960,660 3945,645 C3930,630 3900,630 3870,630
         C3840,630 3810,630 3795,660 C3780,690 3780,750 3765,780
         C3750,810 3720,810 3705,795 C3690,780 3690,750 3705,720
         C3720,690 3750,660 3750,645 C3750,630 3720,630 3690,600
         C3660,570 3630,510 3600,510 Z" />
<path id="linie1-1" class="Rand2"
      d="M3150,2970 C3300,3000 3450,3030 3600,3030 C3750,3030 3900,3000 4050,2970" />
<path id="linie1-2" class="Rand2"
      d="M3150,3060 C3300,3090 3450,3120 3600,3120 C3750,3120 3900,3090 4050,3060" />
<path id="linie1-3" class="Rand2"
      d="M3510,3150 C3480,3480 3450,3810 3450,4140
         C3450,4470 3480,4800 3510,5055 C3540,5310 3570,5490 3600,5670" />
<path id="linie1-4" class="Rand2"
      d="M3330,3150 C3300,3360 3270,3570 3240,3855 C3210,4140 3180,4500 3150,4860" />
<path id="linie1-5" class="Rand2"
      d="M3690,3150 C3660,3480 3630,3810 3630,4095
         C3630,4380 3660,4620 3705,4875 C3750,5130 3810,5400 3870,5535
         C3930,5670 3990,5670 4050,5670" />
<path id="linie1-6" class="Rand2"
      d="M3870,3150 C3900,3330 3930,3510 3945,3750
         C3960,3990 3960,4290 3975,4545 C3990,4800 4020,5010 4050,5190
         C4080,5370 4110,5520 4125,5610 C4140,5700 4140,5730 4125,5760
         C4110,5790 4080,5820 4050,5850" />
<path id="linie1-7" class="Rand2"
      d="M3330,5040 C3300,5190 3270,5340 3270,5445
         C3270,5550 3300,5610 3330,5655 C3360,5700 3390,5730 3435,5730
         C3480,5730 3540,5700 3600,5670" />
<path id="linie1-8" class="Rand2"
      d="M3420,2070 C3330,2310 3240,2550 3195,2730
         C3150,2910 3150,3030 3135,3525 C3120,4020 3090,4890 3060,5760" />
<path id="linie1-9" class="Rand2"
      d="M3780,2070 C3870,2310 3960,2550 4020,2760
         C4080,2970 4110,3150 4140,3645 C4170,4140 4200,4950 4230,5370
         C4260,5790 4290,5820 4320,5850" />
<path id="figur3-1" class="Gold Rand2"
      d="M3150,5940 C3150,5970 3150,6000 3210,6030
         C3270,6060 3390,6090 3450,6075 C3510,6060 3510,6000 3480,5955
         C3450,5910 3390,5880 3330,5865 C3270,5850 3210,5850 3150,5850" />
<path id="figur3-2" class="Gold Rand2"
      d="M4050,5850 C4050,5880 4050,5910 4095,5940
         C4140,5970 4230,6000 4290,6015 C4350,6030 4380,6030 4380,6000
         C4380,5970 4350,5910 4305,5865 C4260,5820 4200,5790 4140,5760" />
<path id="figur4-1" class="Gold Rand2"
      d="M3330,2130 L3870,2130 L3870,2010 L3330,2010 L3330,2130 Z" />
<path id="figur4-2" class="Gold Rand2"
      d="M3150,3150 C3240,3090 3330,3030 3375,2985
         C3420,2940 3420,2910 3420,2865 C3420,2820 3420,2760 3390,2745
         C3360,2730 3300,2760 3261,2779 C3222,2798 3204,2806 3186,2814" />
<path id="figur4-3" class="Gold Rand2"
      d="M4094,3122 C4079.33,3131.33 4064.67,3140.67 4012.33,3115.33
         C3960,3090 3870,3030 3825,2985 C3780,2940 3780,2910 3780,2865
         C3780,2820 3780,2760 3810,2745 C3840,2730 3900,2760 3941,2779
         C3982,2798 4004,2806 4026,2814" />
<path id="figur5-1" class="Silber Rand2"
      d="M3240,2070 L3330,2160 L3420,2070 L3330,1980 L3240,2070 Z" />
<path id="figur5-2" class="Silber Rand2"
      d="M3780,2070 L3870,2160 L3960,2070 L3870,1980 L3780,2070 Z" />
<path id="figur5-3" class="Silber Rand2"
      d="M3345,2880 C3360,2910 3390,2940 3435,2925
         C3480,2910 3540,2850 3570,2805 C3600,2760 3600,2730 3585,2685
         C3570,2640 3540,2580 3540,2535 C3540,2490 3570,2460 3585,2385
         C3600,2310 3600,2190 3585,2160 C3570,2130 3540,2190 3510,2250
         C3480,2310 3450,2370 3450,2445 C3450,2520 3480,2610 3465,2670
         C3450,2730 3390,2760 3360,2790 C3330,2820 3330,2850 3345,2880 Z" />
<path id="figur5-4" class="Silber Rand2"
      d="M3855,2880 C3870,2850 3870,2820 3840,2790
         C3810,2760 3750,2730 3735,2670 C3720,2610 3750,2520 3750,2445
         C3750,2370 3720,2310 3690,2250 C3660,2190 3630,2130 3615,2160
         C3600,2190 3600,2310 3615,2385 C3630,2460 3660,2490 3660,2535
         C3660,2580 3630,2640 3615,2685 C3600,2730 3600,2760 3630,2805
         C3660,2850 3720,2910 3765,2925 C3810,2940 3840,2910 3855,2880 Z" />
<path id="figur6-1" class="Silber Rand2"
      d="M3510,1530 C3510,1650 3510,1770 3525,1845
         C3540,1920 3570,1950 3600,1950 C3630,1950 3660,1920 3675,1845
         C3690,1770 3690,1650 3690,1530" />
<use class="Rand4" xlink:href="#wolke-1" />
<use class="Rand4" xlink:href="#wolke-2" />
<use class="Rand4" xlink:href="#wolke-3" />
<use class="Rand4" xlink:href="#wolke-4" />
<use class="Rand4" xlink:href="#wolke-5" />
<use class="Rand4" xlink:href="#wolke-6" />
<use class="Rand4" xlink:href="#wolke-7" />
<use class="Rand4" xlink:href="#wolke-8" />
<use class="Rand4" xlink:href="#wolke-9" />
<use class="Rand4" xlink:href="#wolke-10" />
<use class="Rand4" xlink:href="#wolke-11" />
<use class="Rand4" xlink:href="#wolke-12" />
<use class="Rand4" xlink:href="#wolke-13" />
<use class="Rand4" xlink:href="#wolke-14" />
<use class="Rand4" xlink:href="#wolke-15" />
<use class="Rand4" xlink:href="#wolke-16" />
<use class="Rand4" xlink:href="#wolke-17" />
<use class="Rand4" xlink:href="#wolke-18" />
<use class="Rand4" xlink:href="#wolke-19" />
<use class="Rand4" xlink:href="#wolke-20" />
<use class="Silber" xlink:href="#wolke-1" />
<use class="Silber" xlink:href="#wolke-2" />
<use class="Silber" xlink:href="#wolke-3" />
<use class="Silber" xlink:href="#wolke-4" />
<use class="Silber" xlink:href="#wolke-5" />
<use class="Silber" xlink:href="#wolke-6" />
<use class="Silber" xlink:href="#wolke-7" />
<use class="Silber" xlink:href="#wolke-8" />
<use class="Silber" xlink:href="#wolke-9" />
<use class="Silber" xlink:href="#wolke-10" />
<use class="Silber" xlink:href="#wolke-11" />
<use class="Silber" xlink:href="#wolke-12" />
<use class="Silber" xlink:href="#wolke-13" />
<use class="Silber" xlink:href="#wolke-14" />
<use class="Silber" xlink:href="#wolke-15" />
<use class="Silber" xlink:href="#wolke-16" />
<use class="Silber" xlink:href="#wolke-17" />
<use class="Silber" xlink:href="#wolke-18" />
<use class="Silber" xlink:href="#wolke-19" />
<use class="Silber" xlink:href="#wolke-20" />
<path id="figur7-1" class="Silber Rand2"
      d="M3450,1215 C3420,1290 3420,1410 3450,1500
         C3480,1590 3540,1650 3600,1650 C3660,1650 3720,1590 3750,1500
         C3780,1410 3780,1290 3750,1215 C3720,1140 3660,1110 3600,1110
         C3540,1110 3480,1140 3450,1215 Z" />
<path id="linie2-1" class="Rand2"
      d="M3960,1800 C3900,1590 3840,1380 3795,1260
         C3750,1140 3720,1110 3675,1095 C3630,1080 3570,1080 3525,1095
         C3480,1110 3450,1140 3405,1260 C3360,1380 3300,1590 3240,1800" />
<path id="linie3-1" class="Rand2" d="M3552,1534 L3602,1548 L3658,1534" />
<path id="linie3-2" class="Rand2"
      d="M3518,1224 C3534.67,1227.33 3551.33,1230.67 3565,1236.67
         C3578.67,1242.67 3589.33,1251.33 3586,1285.33
         C3582.67,1319.33 3565.33,1378.67 3570,1407.67
         C3574.67,1436.67 3601.33,1435.33 3628,1434" />
<path id="auge-1" class="Schwarz"
      d="M3538,1292 A36,24 0.0 0 0 3466,1292 A36,24 0.0 0 0 3538,1292 Z" />
<path id="auge-2" class="Schwarz"
      d="M3734,1292 A36,24 0.0 0 1 3662,1292 A36,24 0.0 0 1 3734,1292 Z" />
</g>
<path id="clip-boundary" class="Rand6"
      d="M360,4140 A3240,3240 0.0 0 0 6840,4140 L6840,270 L360,270 L360,4140 Z" />
</g>
</svg>
